openmetadata-ui/src/main/resources/ui/src/assets/svg/ic-browse-file.svg

<svg viewBox="0 0 16 16" fill="none" xmlns="http://www.w3.org/2000/svg">
<path d="M13.8942 4.35565H8.18745L6.75751 2.59383C6.45219 2.22224 6.00426 2 5.52327 2H2.10252C1.22327 2 0.5 2.7299 0.5 3.60915V13.0683C0.5 13.9442 1.22327 14.6742 2.10252 14.6742H13.8975C14.7767 14.6742 15.5 13.9442 15.5 13.0649V5.94489C15.4967 5.06564 14.7734 4.35565 13.8942 4.35565ZM1.16353 13.0649V3.60915C1.16353 3.09486 1.58822 2.66353 2.10252 2.66353H5.52327C5.80193 2.66353 6.06732 2.79628 6.24322 3.01521L7.32812 4.35565H3.79796C2.92203 4.35565 2.19212 5.06564 2.19212 5.94489V14.0106H2.10252C1.58822 14.0106 1.16353 13.5792 1.16353 13.0649ZM14.8332 13.0649C14.8332 13.5759 14.4085 14.0106 13.8942 14.0106H2.85565V5.94489C2.85565 5.43391 3.28698 5.01918 3.79796 5.01918H13.8942C14.4051 5.01918 14.8332 5.43391 14.8332 5.94489V13.0649Z" fill="#7147E8" stroke="#7147E8" stroke-width="0.2"/>
<path d="M10.1663 10.6574C10.4649 10.2626 10.6441 9.76818 10.6441 9.23729C10.6441 7.93335 9.58244 6.875 8.27518 6.875C6.96792 6.875 5.90625 7.93335 5.90625 9.23729C5.90625 10.5412 6.96792 11.5996 8.27518 11.5996C8.80939 11.5996 9.30034 11.4238 9.69527 11.1251L10.6707 12.0973C10.737 12.1603 10.82 12.1935 10.9063 12.1935C10.9925 12.1935 11.0754 12.1603 11.1418 12.0973C11.2712 11.9678 11.2712 11.7589 11.1418 11.6294L10.1663 10.6574ZM6.56978 9.23397C6.56978 8.2983 7.33619 7.53521 8.27518 7.53521C9.21416 7.53521 9.98058 8.2983 9.98058 9.23397C9.98058 9.69849 9.79472 10.1165 9.48951 10.4251C9.48619 10.4284 9.47955 10.4317 9.47623 10.4383C9.47292 10.4417 9.4696 10.445 9.46628 10.4483C9.15775 10.7469 8.73637 10.9327 8.27518 10.9327C7.33619 10.9361 6.56978 10.173 6.56978 9.23397Z" fill="#7147E8" stroke="#7147E8" stroke-width="0.2"/>
</svg>

<svg xmlns="http://www.w3.org/2000/svg" fill="none" viewBox="0 0 16 16"><path fill="#7147E8" stroke="#7147E8" stroke-width=".2" d="M13.894 4.356H8.187l-1.43-1.762A1.598 1.598 0 0 0 5.524 2h-3.42C1.223 2 .5 2.73.5 3.61v9.458c0 .876.723 1.606 1.603 1.606h11.795c.879 0 1.602-.73 1.602-1.61v-7.12a1.604 1.604 0 0 0-1.606-1.588Zm-12.73 8.709V3.609a.95.95 0 0 1 .939-.945h3.42a.93.93 0 0 1 .72.351l1.085 1.34h-3.53c-.876 0-1.606.71-1.606 1.59v8.066h-.09a.95.95 0 0 1-.938-.946Zm13.67 0a.953.953 0 0 1-.94.946H2.856V5.945a.94.94 0 0 1 .942-.926h10.096c.511 0 .94.415.94.926v7.12Z"/><path fill="#7147E8" stroke="#7147E8" stroke-width=".2" d="M10.166 10.657c.299-.394.478-.889.478-1.42a2.367 2.367 0 0 0-2.369-2.362 2.367 2.367 0 0 0-2.369 2.362 2.367 2.367 0 0 0 3.79 1.888l.975.972a.34.34 0 0 0 .235.097.33.33 0 0 0 .236-.564l-.976-.973ZM6.57 9.234a1.706 1.706 0 0 1 3.41 0c0 .464-.185.883-.49 1.191-.004.003-.01.007-.014.013a1.712 1.712 0 0 1-1.201.494A1.701 1.701 0 0 1 6.57 9.235Z"/></svg>
